static/assets/img/icons/theme/layout/layout-right-panel-2.svg

<svg height="24" viewBox="0 0 24 24" width="24" xmlns="http://www.w3.org/2000/svg"><g fill="none" fill-rule="evenodd"><path d="m0 0h24v24h-24z" opacity="0"/><g fill="#000"><path d="m10.5 5h10c.8284271 0 1.5.67157288 1.5 1.5v3c0 .8284271-.6715729 1.5-1.5 1.5h-10c-.82842712 0-1.5-.6715729-1.5-1.5v-3c0-.82842712.67157288-1.5 1.5-1.5zm0 8h10c.8284271 0 1.5.6715729 1.5 1.5v3c0 .8284271-.6715729 1.5-1.5 1.5h-10c-.82842712 0-1.5-.6715729-1.5-1.5v-3c0-.8284271.67157288-1.5 1.5-1.5z"/><rect height="14" opacity=".3" rx="1" width="5" x="2" y="5"/></g></g></svg>

<svg width="24px" height="24px" viewBox="0 0 24 24" version="1.1" xmlns="http://www.w3.org/2000/svg" xmlns:xlink="http://www.w3.org/1999/xlink">
    <title>Icon For Layout-right-panel-2</title>
    <g stroke="none" stroke-width="1" fill="none" fill-rule="evenodd">
        <rect opacity="0" x="0" y="0" width="24" height="24"></rect>
        <path d="M10.5,5 L20.5,5 C21.3284271,5 22,5.67157288 22,6.5 L22,9.5 C22,10.3284271 21.3284271,11 20.5,11 L10.5,11 C9.67157288,11 9,10.3284271 9,9.5 L9,6.5 C9,5.67157288 9.67157288,5 10.5,5 Z M10.5,13 L20.5,13 C21.3284271,13 22,13.6715729 22,14.5 L22,17.5 C22,18.3284271 21.3284271,19 20.5,19 L10.5,19 C9.67157288,19 9,18.3284271 9,17.5 L9,14.5 C9,13.6715729 9.67157288,13 10.5,13 Z" fill="#000000"></path>
        <rect fill="#000000" opacity="0.3" x="2" y="5" width="5" height="14" rx="1"></rect>
    </g>
</svg>
